X: 2
T: Oot Be Est Da Vong
R: reel
M: 4/4
L: 1/8
K: Dmaj
|:A~F3 ABde|~f3d edBd|A~F3 ABde|1 fdef d2 dB:||~g3e ~f3d|edef edBA|~g3e f2 fd|edef ~a3f||~g3e ~f3d|edef edBd|A~F3 ABde|faec d2 dB|Also, instead of the |A~F3 ABde| phrase, they sometimes play it AFEF ABde|.


Tune 642	Setting 642

